X: 1
T:Bean Pheadrin
M:C
L:1/8
Q:80
C:
S:Reel
K:HP
| e{g}e{A}ed{g}eA{gAGAG}A2|
e{g}e{A}ef{gf}g2{g}ge|
ge{g}dB{g}dG{g}G{d}G|  !
{g}Bd{g}ef{gf}g2ag|
e{g}e{A}ed{g}eA{gAGAG}A2|
e{g}e{A}ef{gf}g2{a}fg|  !
a{g}a{g}agag{a}ef|
{a}ge{g}dB{gAGAG}A3{d}B|
{g}Aa{g}agag{a}ed|  !
e{g}e{A}ef{gf}g2{g}ge|
ge{g}dB{g}dG{g}G{d}G|
{g}Bd{g}ef{gf}g2ag|  !
{GdG}e2{g}ed{g}eA{gAGAG}A2|
e{g}e{A}ef{gf}g2{a}fg|
a{g}a{g}agag{a}ef|  !
{a}ge{g}dB{gAGAG}A4|
